material/.icons/material/wifi.svg

<svg xmlns="http://www.w3.org/2000/svg" viewBox="0 0 24 24"><path d="M12 21l3.6-4.8c-1-.75-2.25-1.2-3.6-1.2s-2.6.45-3.6 1.2L12 21m0-18C7.95 3 4.21 4.34 1.2 6.6L3 9c2.5-1.88 5.62-3 9-3s6.5 1.12 9 3l1.8-2.4C19.79 4.34 16.05 3 12 3m0 6c-2.7 0-5.19.89-7.2 2.4l1.8 2.4C8.1 12.67 9.97 12 12 12c2.03 0 3.9.67 5.4 1.8l1.8-2.4C17.19 9.89 14.7 9 12 9z"/></svg>

<?xml version="1.0" encoding="UTF-8"?><!DOCTYPE svg PUBLIC "-//W3C//DTD SVG 1.1//EN" "http://www.w3.org/Graphics/SVG/1.1/DTD/svg11.dtd"><svg xmlns="http://www.w3.org/2000/svg" xmlns:xlink="http://www.w3.org/1999/xlink" version="1.1" id="mdi-wifi" width="24" height="24" viewBox="0 0 24 24"><path d="M12,21L15.6,16.2C14.6,15.45 13.35,15 12,15C10.65,15 9.4,15.45 8.4,16.2L12,21M12,3C7.95,3 4.21,4.34 1.2,6.6L3,9C5.5,7.12 8.62,6 12,6C15.38,6 18.5,7.12 21,9L22.8,6.6C19.79,4.34 16.05,3 12,3M12,9C9.3,9 6.81,9.89 4.8,11.4L6.6,13.8C8.1,12.67 9.97,12 12,12C14.03,12 15.9,12.67 17.4,13.8L19.2,11.4C17.19,9.89 14.7,9 12,9Z" /></svg>
